!!!COM: Sergey (Sergeyevich) Prokofiev
!!!OTL: [T578_Pro-w24p42h30m1-9]
**kern	**dynam	**kern	**dynam	**kern	**dynam	**kern	**dynam
*grp:A	*grp:A	*grp:A	*grp:A	*grp:B	*grp:B	*grp:B	*grp:B
*part4	*part4	*part3	*part3	*part2	*part2	*part1	*part1
*staff4	*staff4	*staff3	*staff3	*staff2	*staff2	*staff1	*staff1
*I"Violoncello	*I"Violoncello	*I"Viola	*I"Viola	*I"Violin II	*I"Violin II	*I"Violin I	*I"Violin I
*I'Vc.	*	*I'Vla.	*	*I'Vln. II	*	*I'Vln. I	*
*clefF4	*	*clefC3	*	*clefG2	*	*clefG2	*
*k[f#c#g#]	*	*k[f#c#g#]	*	*k[f#c#g#]	*	*k[f#c#g#]	*
*A:	*	*A:	*	*A:	*	*A:	*
*M9/8	*	*M9/8	*	*M9/8	*	*M9/8	*
=1	=1	=1	=1	=1	=1	=1	=1
!	!	!	!	!	!	!LO:TX:t=[[quarter-dot]=40]	!LO:DY:t=%s dolce
4ryy	4ryy	4.ryy	.	8aL]	pp	(4cc#v	pp
.	.	.	.	(8e	.	.	.
8ryy	.	.	.	8aJ)	.	[8ff#	.
2.ryy	.	4.ryy	.	(8eL	.	8ff#L]	.
.	.	.	.	8c#)	.	8ffn)	.
.	.	.	.	8e~J	.	([8eeJ	.
.	.	8ryy	4ryy	4.A	.	8ee]	.
.	.	8ryy	.	.	.	4aa)	.
.	.	8ryy	.	.	.	.	.
=2	=2	=2	=2	=2	=2	=2	=2
8ryy	.	8ryy	.	8%9r	.	(8gg#L	.
8ryy	.	8ryy	.	.	.	8cc#	.
8ryy	.	8ryy	.	.	.	[8ff#J	.
8ryy	.	8ryy	.	.	.	8ff#])	.
!	!	!	!	!	!	!LO:TX:a:t=II	!
8ryy	.	8ryy	.	.	.	(4aa	.
8ryy	.	8ryy	.	.	.	.	.
8ryy	.	8ryy	.	.	.	4bb	.
8ryy	.	8ryy	.	.	.	.	.
8ryy	.	8ryy	.	.	.	8ee)	.
=3	=3	=3	=3	=3	=3	=3	=3
2.ryy	.	2.ryy	.	8aao~vL	pp	(8ccc#L	.
!	!	!	!	!	!	!LO:N:	!
.	.	.	.	(8ee	.	8eeeo)	.
.	.	.	.	8gg#J)	.	[8bbJ	.
.	.	.	.	(8eeL	.	8bbL]	.
.	.	.	.	8cc#)	.	8ccc#~	.
.	.	.	.	8g#~J	.	([8bbJ	.
4.ryy	.	4.ryy	.	(8cc#L	.	8bb]	.
.	.	.	.	8g#	.	4ee)	.
.	.	.	.	8eJ)	.	.	.
=4	=4	=4	=4	=4	=4	=4	=4
4ryy	.	2.ryy	.	(4.a	.	(8ee#X	.
.	.	.	.	.	.	4ccc#)	.
8ryy	.	.	.	.	.	.	.
8ryy	.	.	.	4.a#X)	.	(8ff#L	.
8ryy	.	.	.	.	.	8ddd	.
8ryy	.	.	.	.	.	8ccc#J)	.
4ryy	.	4.ryy	.	[4.b	.	4.bb~	.
8ryy	.	.	.	.	.	.	.
=5	=5	=5	=5	=5	=5	=5	=5
8ryy	4ryy	8ryy	.	8bL]	.	8%9r	.
!	!	!	!	! 	!LO:DY:t=%s espress.	!	!
8ryy	.	8ryy	4ryy	(8cc#	p	.	.
8ryy	.	8ryy	.	[8ddJ	.	.	.
8ryy	.	4ryy	.	8dd])	.	.	.
8ryy	.	.	.	4ff#~	.	.	.
8ryy	.	8ryy	.	.	.	.	.
8ryy	.	8ryy	.	(4dd	.	.	.
8ryy	.	8ryy	.	.	.	.	.
8ryy	.	8ryy	.	8b)	.	.	.
=6	=6	=6	=6	=6	=6	=6	=6
8ryy	.	8ryy	.	(8ff#	<	(8B#XvL	mp <
8ryy	.	4ryy	.	4cc#)	.	8c#	.
8ryy	4ryy	.	.	.	.	8d#XJ)	.
4.ryy	.	8ryy	4ryy	(8aa	.	(8e#XL	.
.	.	8ryy	.	4dd)	.	8f#)	.
.	.	8ryy	4ryy	.	.	8a#X~J	.
8ryy	4ryy	8ryy	4ryy	[4.bb	mf [	(8cc#L	[ >
8ryy	.	8ryy	.	.	.	8.ddn	.
8ryy	4ryy	8ryy	4ryy	.	.	.	.
.	.	.	.	.	.	16eenJk)	]
=7	=7	=7	=7	=7	=7	=7	=7
8ryy	4ryy	4ryy	4ryy	8bbL]	.	4dd~	p
4ryy	.	.	.	(8aa	p	.	.
.	.	8ryy	.	[8ff#J	.	8b~	.
4ryy	.	4ryy	.	8ff#L])	.	(4cc#	.
.	.	.	.	(8gg#	.	.	.
8ryy	.	8ryy	.	[8eeJ	.	8a)	.
4ryy	.	8ryy	.	8eeL]	.	(8b	.
.	.	4ryy	.	8dd	.	4b-X	.
8ryy	.	.	.	8eeJ)	.	.	.
=8	=8	=8	=8	=8	=8	=8	=8
8ryy	.	4.ryy	.	2.ff#	.	4a)	.
8ryy	.	.	.	.	.	.	.
!	!	!	!	!	!	!	!LO:DY:t=%s espress.
8ryy	.	.	.	.	.	([8ff#v	p
8ryy	4ryy	8ryy	.	.	.	8ff#L]	.
8ryy	.	8ryy	.	.	.	8gg#	.
8ryy	.	8ryy	4ryy	.	.	[8aaJ	.
8ryy	.	8ryy	.	4.cc#	< [	8aaL])	<
8ryy	.	8ryy	.	.	.	(8aa#X	.
8ryy	4ryy	8ryy	4ryy	.	.	[8bbJ	[
=9	=9	=9	=9	=9	=9	=9	=9
8ryy	4ryy	8ryy	4ryy	(8dd	mf	8bbL])	mf
8ryy	.	4ryy	.	4cc#)	.	(8aan	.
8ryy	.	.	.	.	.	[8ff#J	.
!	!	!	!	!	!	!LO:TX:a:B:t=pochiss. rit.	!
8ryy	4ryy	8ryy	4ryy	(8cc#	>	8ff#L])	>
8ryy	.	4ryy	.	4b)	.	(8gg#	.
8ryy	.	.	.	.	.	[8eeJ	.
4ryy	.	8ryy	.	(8b	.	8eeL]	.
.	.	4ryy	.	4b-X)	.	8dd	.
8ryy	4ryy	.	4ryy	.	]]	8eeJ)	]]
=	=	=	=	=	=	=	=
*-	*-	*-	*-	*-	*-	*-	*-
!!!system-decoration: [(s1,s2,s3,s4)]
!!!EED: Rafael Laurindo
!!!EEV: 2021/08/20
!!!EED2: Gabriella Vici
!!!EEV2: 2022/02/17
